assets/netbeans/original.svg

<svg viewBox="0 0 128 128" xmlns="http://www.w3.org/2000/svg"><g fill-rule="evenodd"><path d="m64 128-57.778-31.556v-64.444l22.222 12.444v39.112l35.556 19.554" fill="#a6043f"/><path d="m6.222 32 22.222 12.444 35.556-20.444 35.556 20.444 22.222-12.444-57.778-32z" fill="#95d921"/><path d="m64 24 35.556 20.444-35.556 20-35.556-20z" fill="#dcdfe7"/><path d="m28.444 44.444 35.556 20v38.667l-35.556-19.555z" fill="#fff"/><path d="m64 64.444 35.556-20v39.112l-35.556 19.554z" fill="#c9dae9"/><path d="m64 128 57.778-31.556v-64.444l-22.222 12.444v39.112l-35.556 19.554" fill="#1d6ac6"/><path d="m64 128-57.778-31.556 22.222-12.888 35.556 19.554" fill="#ea1f5e"/><path d="m64 128 57.778-31.556-22.222-12.888-35.556 19.554" fill="#2e90e9"/></g></svg>

<svg xmlns="http://www.w3.org/2000/svg" viewBox="0 0 128 128"><g fill-rule="evenodd"><path fill="#a6043f" d="M64 128 6.222 96.444V32l22.222 12.444v39.112L64 103.11"/><path fill="#95d921" d="m6.222 32 22.222 12.444L64 24l35.556 20.444L121.778 32 64 0z"/><path fill="#dcdfe7" d="m64 24 35.556 20.444-35.556 20-35.556-20z"/><path fill="#fff" d="m28.444 44.444 35.556 20v38.667L28.444 83.556z"/><path fill="#c9dae9" d="m64 64.444 35.556-20v39.112L64 103.11z"/><path fill="#1d6ac6" d="m64 128 57.778-31.556V32L99.556 44.444v39.112L64 103.11"/><path fill="#ea1f5e" d="M64 128 6.222 96.444l22.222-12.888L64 103.11"/><path fill="#2e90e9" d="m64 128 57.778-31.556-22.222-12.888L64 103.11"/></g></svg>
